X: 31188
T: Paddy Fahey's
R: reel
M: 4/4
K: Gdorian
B2 dB DGBd|c3 A FAcA|B2 dB DGBd|c3 A BGGA|
B2 GA BDGB|AD^FD c2 =Bc|dg g2 dc=Bd|c=Bc^F DGGA||
B2 dB DGBd|c3 A FAcA|B2 dB DGBd|c3 A BGGA|
B2 GA BDGB|AD^FD c2 =Bc|dg g2 dc=Bd|c=Bc^F DGGA||
gfgd Bdge|=f2 cf ABcf|g3 d ABcA|dgfa g3 a|
_bgaf gfec|B/c/dBG D2 FA|dg g2 dcBd|cBcA DGBd||
gfgd Bdge|=f2 cf ABcf|g3 d ABcA|dgfa g3 a|
_bgaf gfec|B/c/dBG D2 =FA|dg g2 dcBd|cBc=A DGGA||

